X:1
T: The Reversal
C:Muriel A Johnstone
R:Reel
%Q: 232
K:G
M:4/4
L:1/8
|:d2|((3efg) dB AG AB|G2 BD ED B,D|G2 GD ED EG|cB AG A2 d2|
((3efg) dB AG AB|G2 BG AG EG|DE GA Bd eg|ed BA G2 d2|
e3d ed Bd|cB AG A2 d2|e3g ed Bg|ed cB AB cd|
e2 ed ed Bd|cB AG A2 D2|((3EFG) DB AG AB|G2 B2 G2:|
